src/images/slack-button.svg

<svg xmlns="http://www.w3.org/2000/svg" width="122" height="197" fill="none" viewBox="0 0 122 197"><path fill="#fff" fill-rule="evenodd" d="M76.961 0.875977C80.1642 0.875977 83.2362 2.14909 85.5012 4.41524C87.7662 6.68138 89.0386 9.75494 89.0386 12.9598V41.7497C89.0386 43.3366 88.7262 44.9079 88.1193 46.374C87.5123 47.8401 86.6227 49.1722 85.5012 50.2943C84.3797 51.4163 83.0482 52.3064 81.5829 52.9137C80.1176 53.5209 78.547 53.8335 76.961 53.8335C75.3749 53.8335 73.8044 53.5209 72.3391 52.9137C70.8737 52.3064 69.5423 51.4163 68.4208 50.2943C67.2993 49.1722 66.4096 47.8401 65.8027 46.374C65.1957 44.9079 64.8833 43.3366 64.8833 41.7497V12.9598C64.8833 9.75494 66.1558 6.68138 68.4208 4.41524C70.6858 2.14909 73.7578 0.875977 76.961 0.875977Z" clip-rule="evenodd"/><path fill="#fff" fill-rule="evenodd" d="M47.7637 60.7708C50.9669 60.7708 54.0389 62.0439 56.3039 64.31C58.5689 66.5762 59.8414 69.6497 59.8414 72.8545V101.644C59.8414 104.849 58.5689 107.923 56.3039 110.189C54.0389 112.455 50.9669 113.728 47.7637 113.728C44.5605 113.728 41.4885 112.455 39.2235 110.189C36.9585 107.923 35.686 104.849 35.686 101.644V72.8545C35.686 69.6497 36.9585 66.5762 39.2235 64.31C41.4885 62.0439 44.5605 60.7708 47.7637 60.7708Z" clip-rule="evenodd"/><path fill="#fff" fill-rule="evenodd" d="M59.3174 42.6963C59.3174 45.9011 58.0449 48.9747 55.7799 51.2408C53.5149 53.507 50.4429 54.7801 47.2397 54.7801H18.457C15.2538 54.7801 12.1818 53.507 9.91684 51.2408C7.65184 48.9747 6.37939 45.9011 6.37939 42.6963C6.37939 41.1094 6.6918 39.5381 7.29876 38.0721C7.90572 36.606 8.79532 35.2739 9.91684 34.1518C11.0384 33.0297 12.3698 32.1396 13.8351 31.5324C15.3004 30.9251 16.871 30.6125 18.457 30.6125H47.2397C48.8258 30.6125 50.3963 30.9251 51.8616 31.5324C53.3269 32.1396 54.6584 33.0297 55.7799 34.1518C56.9014 35.2739 57.7911 36.606 58.398 38.0721C59.005 39.5381 59.3174 41.1094 59.3174 42.6963Z" clip-rule="evenodd"/><path fill="#fff" fill-rule="evenodd" d="M64.9854 72.3306C64.9854 70.7437 65.2978 69.1724 65.9047 67.7063C66.5117 66.2403 67.4013 64.9082 68.5228 63.7861C69.6444 62.664 70.9757 61.7739 72.4411 61.1666C73.9064 60.5594 75.4769 60.2468 77.063 60.2468H105.824C109.027 60.2468 112.099 61.5199 114.364 63.7861C116.629 66.0522 117.901 69.1258 117.901 72.3306C117.901 75.5354 116.629 78.609 114.364 80.8751C112.099 83.1413 109.027 84.4144 105.824 84.4144H77.063C73.8598 84.4144 70.7878 83.1413 68.5228 80.8751C66.2578 78.609 64.9854 75.5354 64.9854 72.3306Z" clip-rule="evenodd"/><path fill="#fff" fill-rule="evenodd" d="M95.1209 42.6887C95.1238 40.3973 95.8056 38.1582 97.0801 36.2543C98.3546 34.3505 100.165 32.8674 102.281 31.9925C104.398 31.1176 106.727 30.8902 108.973 31.339C111.218 31.7878 113.281 32.8926 114.899 34.5139C116.518 36.1352 117.62 38.2002 118.065 40.4478C118.511 42.6954 118.281 45.0248 117.404 47.1415C116.527 49.2582 115.042 51.0673 113.137 52.34C111.233 53.6128 108.994 54.2921 106.704 54.2921C103.182 54.2921 94.8809 54.7579 94.8809 54.7579C94.8809 54.7579 95.1209 45.5714 95.1209 42.6887Z" clip-rule="evenodd" opacity=".97"/><path fill="#fff" fill-rule="evenodd" d="M47.6179 24.5194C45.3301 24.6234 43.0628 24.0465 41.1027 22.8617C39.1425 21.6768 37.5773 19.9372 36.605 17.8626C35.6327 15.7881 35.2969 13.4717 35.64 11.2063C35.9831 8.94086 36.9898 6.82803 38.5327 5.13481C40.0757 3.4416 42.0857 2.24399 44.3087 1.69336C46.5317 1.14274 48.868 1.26379 51.0223 2.04123C53.1766 2.81867 55.0522 4.21759 56.412 6.06122C57.7719 7.90484 58.555 10.1104 58.6624 12.3992C58.8224 15.9151 59.681 24.1845 59.681 24.1845C59.681 24.1845 50.5282 24.3811 47.6179 24.5194Z" clip-rule="evenodd" opacity=".97"/><path fill="#fff" fill-rule="evenodd" d="M29.429 72.4762C29.4318 74.7664 28.7564 77.0061 27.4879 78.9125C26.2195 80.8188 24.415 82.3064 22.3021 83.1875C20.1892 84.0685 17.8628 84.3035 15.6166 83.8627C13.3704 83.4219 11.3051 82.3251 9.68145 80.7107C8.05781 79.0964 6.94864 77.037 6.49398 74.7925C6.03932 72.5479 6.25954 70.2189 7.12687 68.0995C7.99421 65.9801 9.46976 64.1653 11.3672 62.8843C13.2646 61.6033 15.4989 60.9135 17.7879 60.902C21.302 60.902 29.6036 60.407 29.6036 60.407C29.6036 60.407 29.429 69.5863 29.429 72.4762Z" clip-rule="evenodd" opacity=".97"/><path fill="#fff" fill-rule="evenodd" d="M77.4485 90.4344C79.74 90.4459 81.9765 91.1373 83.8752 92.4209C85.7738 93.7045 87.2493 95.5227 88.1148 97.6455C88.9804 99.7683 89.1972 102.1 88.7378 104.346C88.2784 106.592 87.1634 108.652 85.534 110.264C83.9045 111.876 81.8338 112.968 79.5837 113.402C77.3337 113.836 75.0055 113.593 72.8937 112.703C70.7819 111.813 68.9815 110.316 67.72 108.402C66.4586 106.488 65.793 104.243 65.8074 101.95C65.8074 98.4344 65.4072 90.1287 65.4072 90.1287C65.4072 90.1287 74.5382 90.4125 77.4485 90.4344Z" clip-rule="evenodd" opacity=".97"/><path fill="#fff" d="M16.9609 193.098C19.3726 194.951 24.196 196.209 27.5514 196.209C33.1088 196.209 37.0235 194.147 37.0235 188.939C37.0235 184.116 33.9826 183.067 27.2369 181.529C23.6717 180.69 21.8542 180.096 21.8542 178.384C21.8542 176.391 23.5669 175.937 25.8388 175.937C28.0757 175.937 31.6408 176.706 35.1361 177.964V173.735C32.7943 172.581 29.1243 171.743 26.2932 171.743C20.8756 171.743 17.3105 173.735 17.3105 178.628C17.3105 182.508 19.6872 184.151 26.0135 185.584C30.5224 186.632 32.4797 187.191 32.4797 189.219C32.4797 191.526 30.6622 192.015 27.5514 192.015C24.4057 192.015 20.2464 190.827 16.9609 188.59V193.098ZM40.6915 171.393V195.86H45.2353V171.393H40.6915ZM64.1843 191.491V177.859H50.553V181.879H59.6405V185.723C58.7667 184.43 57.4036 183.626 54.7822 183.626C50.518 183.626 48.5257 186.702 48.5257 189.918C48.5257 193.133 50.518 196.209 54.7822 196.209C57.4036 196.209 58.7667 195.37 59.6405 194.112V195.86H66.4562V191.491H64.1843ZM56.355 192.434C53.9783 192.434 53.0695 191.316 53.0695 189.918C53.0695 188.52 53.9783 187.401 56.355 187.401C58.7318 187.401 59.6405 188.52 59.6405 189.918C59.6405 191.316 58.7318 192.434 56.355 192.434ZM68.3911 186.842C68.3911 192.329 71.0824 196.209 76.6748 196.209C81.8477 196.209 84.539 192.679 84.539 188.52H79.9953C79.8554 190.512 79.2962 192.015 76.7447 192.015C73.6689 192.015 72.9349 190.337 72.9349 186.842C72.9349 183.347 73.6689 181.704 76.7447 181.704C79.2962 181.704 79.8554 183.207 79.9953 185.199H84.539C84.539 181.04 81.8477 177.51 76.6748 177.51C71.0824 177.51 68.3911 181.354 68.3911 186.842ZM105.13 177.859H99.6771L94.9586 184.78H92.4071V171.393H87.8633V195.86H92.4071V188.974H94.9586L99.6771 195.86H105.13L98.9431 186.877L105.13 177.859Z"/></svg>

<svg fill="none" viewBox="0 0 122 197"><path fill="#fff" fill-rule="evenodd" d="M76.961.876c3.203 0 6.275 1.273 8.54 3.54a12.087 12.087 0 013.538 8.544v28.79a12.09 12.09 0 01-3.538 8.544 12.08 12.08 0 01-13.162 2.62 12.078 12.078 0 01-7.456-11.164V12.96c0-3.205 1.273-6.279 3.538-8.545A12.075 12.075 0 0176.96.876zM47.764 60.771c3.203 0 6.275 1.273 8.54 3.539a12.087 12.087 0 013.537 8.544v28.79c0 3.205-1.272 6.279-3.537 8.545a12.075 12.075 0 01-20.618-8.545v-28.79c0-3.204 1.273-6.278 3.538-8.544a12.075 12.075 0 018.54-3.54zm11.553-18.075c0 3.205-1.272 6.279-3.537 8.545a12.074 12.074 0 01-8.54 3.54H18.457a12.074 12.074 0 01-8.54-3.54 12.087 12.087 0 018.54-20.628H47.24a12.071 12.071 0 0111.158 7.46c.607 1.465.92 3.036.92 4.623zm5.668 29.635a12.09 12.09 0 013.538-8.545 12.078 12.078 0 018.54-3.54h28.761c3.203 0 6.275 1.274 8.54 3.54a12.086 12.086 0 01-8.54 20.628H77.063a12.074 12.074 0 01-8.54-3.539 12.087 12.087 0 01-3.538-8.544z" clip-rule="evenodd"/><path fill="#fff" fill-rule="evenodd" d="M95.12 42.689a11.593 11.593 0 017.161-10.697 11.58 11.58 0 0115.784 8.456 11.593 11.593 0 01-4.928 11.892 11.576 11.576 0 01-6.433 1.952c-3.522 0-11.823.466-11.823.466s.24-9.187.24-12.07zm-47.502-18.17a11.578 11.578 0 01-11.013-6.656 11.594 11.594 0 011.928-12.728 11.582 11.582 0 0112.49-3.094 11.583 11.583 0 017.64 10.358c.16 3.516 1.018 11.786 1.018 11.786s-9.153.196-12.063.334zM29.429 72.476a11.593 11.593 0 01-7.127 10.712 11.578 11.578 0 01-12.62-2.477 11.59 11.59 0 018.106-19.809c3.514 0 11.816-.495 11.816-.495s-.175 9.18-.175 12.07zm48.02 17.958a11.579 11.579 0 0110.666 7.212 11.593 11.593 0 01-8.531 15.756 11.579 11.579 0 01-11.864-5 11.592 11.592 0 01-1.913-6.452c0-3.516-.4-11.821-.4-11.821s9.131.283 12.041.305z" clip-rule="evenodd" opacity=".97"/><path fill="#fff" d="M16.96 193.098c2.413 1.853 7.236 3.111 10.591 3.111 5.558 0 9.473-2.062 9.473-7.27 0-4.823-3.041-5.872-9.787-7.41-3.565-.839-5.383-1.433-5.383-3.145 0-1.993 1.713-2.447 3.985-2.447 2.237 0 5.802.769 9.297 2.027v-4.229c-2.342-1.154-6.012-1.992-8.843-1.992-5.417 0-8.982 1.992-8.982 6.885 0 3.88 2.376 5.523 8.703 6.956 4.508 1.048 6.466 1.607 6.466 3.635 0 2.307-1.818 2.796-4.929 2.796-3.145 0-7.305-1.188-10.59-3.425v4.508zm23.731-21.705v24.467h4.544v-24.467h-4.544zm23.493 20.098v-13.632H50.553v4.02h9.088v3.844c-.874-1.293-2.237-2.097-4.859-2.097-4.264 0-6.256 3.076-6.256 6.292 0 3.215 1.992 6.291 6.256 6.291 2.622 0 3.985-.839 4.859-2.097v1.748h6.815v-4.369h-2.272zm-7.829.943c-2.377 0-3.285-1.118-3.285-2.516s.908-2.517 3.285-2.517c2.377 0 3.286 1.119 3.286 2.517s-.91 2.516-3.286 2.516zm12.036-5.592c0 5.487 2.691 9.367 8.284 9.367 5.173 0 7.864-3.53 7.864-7.689h-4.544c-.14 1.992-.699 3.495-3.25 3.495-3.076 0-3.81-1.678-3.81-5.173s.734-5.138 3.81-5.138c2.551 0 3.11 1.503 3.25 3.495h4.544c0-4.159-2.691-7.689-7.864-7.689-5.593 0-8.284 3.844-8.284 9.332zm36.739-8.983h-5.453l-4.718 6.921h-2.552v-13.387h-4.544v24.467h4.544v-6.886h2.552l4.718 6.886h5.453l-6.187-8.983 6.187-9.018z"/></svg>
